src/icons/astro.svg

<svg viewBox="0 0 24 24" xmlns="http://www.w3.org/2000/svg">
  <path
    d="M4.428 14.135C4.116 15.132 3.961 15.63 3.999 16.103C4.035 16.52 4.177 16.921 4.412 17.268C4.678 17.66 5.112 17.95 5.982 18.529L9.821 21.089C10.596 21.605 10.984 21.864 11.403 21.965C11.773 22.055 12.16 22.055 12.531 21.968C12.951 21.868 13.341 21.611 14.119 21.098L18 18.533C18.878 17.952 19.318 17.663 19.588 17.267C19.8246 16.9186 19.9665 16.5148 20 16.095C20.039 15.618 19.878 15.117 19.56 14.113L16.16 3.413C15.995 2.893 15.913 2.634 15.755 2.441C15.6158 2.27146 15.4359 2.14002 15.232 2.059C15.002 1.967 14.73 1.967 14.185 1.967H9.754C9.207 1.967 8.932 1.967 8.701 2.061C8.49644 2.1422 8.31605 2.27439 8.177 2.445C8.019 2.639 7.938 2.9 7.776 3.422L4.428 14.135ZM14.358 4.238C14.488 4.4 14.556 4.621 14.689 5.058L17.608 14.646C16.5114 14.0775 15.3346 13.6796 14.118 13.466L12.218 7.043C12.2024 6.99233 12.1709 6.94801 12.1283 6.91652C12.0856 6.88503 12.034 6.86804 11.981 6.86804C11.928 6.86804 11.8764 6.88503 11.8337 6.91652C11.7911 6.94801 11.7596 6.99233 11.744 7.043L9.866 13.461C8.64399 13.6741 7.46191 14.0734 6.361 14.645L9.295 5.057C9.428 4.618 9.495 4.399 9.626 4.237C9.742 4.094 9.893 3.983 10.063 3.914C10.257 3.836 10.486 3.836 10.944 3.836H13.039C13.497 3.836 13.727 3.836 13.921 3.914C14.091 3.983 14.241 4.094 14.358 4.238ZM12.095 15.795C13.201 15.795 14.162 15.515 14.643 15.103C14.7285 15.3721 14.7588 15.6557 14.7322 15.9368C14.7055 16.2179 14.6225 16.4907 14.488 16.739C14.18 17.309 13.733 17.592 13.33 17.847C12.824 18.168 12.389 18.445 12.389 19.187C12.389 19.432 12.445 19.666 12.546 19.873C12.2052 19.7313 11.914 19.4919 11.7091 19.1849C11.5043 18.8779 11.395 18.5171 11.395 18.148V18.102C11.395 17.59 11.396 16.959 10.673 16.959C10.5725 16.9589 10.473 16.9785 10.3802 17.0168C10.2873 17.0552 10.2029 17.1114 10.1318 17.1824C10.0606 17.2533 10.0042 17.3376 9.96561 17.4303C9.92705 17.5231 9.90713 17.6225 9.907 17.723C9.095 16.91 9.166 15.74 9.166 15.74C9.166 15.501 9.19 15.129 9.297 14.804C9.599 15.372 10.737 15.794 12.095 15.794V15.795Z"
    fill="#FF6D00"
  />
</svg>

<svg fill="none" viewBox="0 0 24 24" xmlns="http://www.w3.org/2000/svg">
  <path
    d="M4.428 14.135c-.312.997-.467 1.495-.429 1.968.036.417.178.818.413 1.165.266.392.7.682 1.57 1.261l3.839 2.56c.775.516 1.163.775 1.582.876.37.09.757.09 1.128.003.42-.1.81-.357 1.588-.87L18 18.533c.878-.581 1.318-.87 1.588-1.266A2.43 2.43 0 0 0 20 16.095c.039-.477-.122-.978-.44-1.982l-3.4-10.7c-.165-.52-.247-.779-.405-.972a1.296 1.296 0 0 0-.523-.382c-.23-.092-.502-.092-1.047-.092H9.754c-.547 0-.822 0-1.053.094a1.29 1.29 0 0 0-.524.384c-.158.194-.239.455-.401.977L4.428 14.136zm9.93-9.897c.13.162.198.383.331.82l2.919 9.588a12.146 12.146 0 0 0-3.49-1.18l-1.9-6.423a.248.248 0 0 0-.474 0l-1.878 6.418a12.128 12.128 0 0 0-3.505 1.184l2.934-9.588c.133-.439.2-.658.331-.82.116-.143.267-.254.437-.323.194-.078.423-.078.881-.078h2.095c.458 0 .688 0 .882.078.17.069.32.18.437.324zm-2.263 11.557c1.106 0 2.067-.28 2.548-.692a2.1 2.1 0 0 1-.155 1.636c-.308.57-.755.853-1.158 1.108-.506.321-.941.598-.941 1.34 0 .245.056.479.157.686a1.868 1.868 0 0 1-1.151-1.725v-.046c0-.512.001-1.143-.722-1.143a.765.765 0 0 0-.766.764c-.812-.813-.741-1.983-.741-1.983 0-.239.024-.611.131-.936.302.568 1.44.99 2.798.99z"
    clip-rule="evenodd"
    fill="#ff6d00"
    fill-rule="evenodd"
    style="stroke-width: 0.93414"
  />
</svg>
